X:150
T: DU LIEBER FROMMER HEILGER CHRIST
N: B0641
O: Europa, Mitteleuropa, Deutschland
R: Kinder -, Weihnachts - Lied, religioes
M: 2/4
L: 1/8
K: G
G | B2G2 | c2B2 | AGAB | G2z
D | G2B2 | A3F | AGFE | D2z
D | c3A | GFED | G2B2 | d3
c | B2d2 | dcBA | G2F2 | G2z

@@@ Tune index: 2368
